X:24
T: Die Kauernburger Lena, die hot so gutn Schnupftabak
N: V0005B
O: Europa, Mitteleuropa, Deutschland, Ober - Franken, Foelschnitz
R: Geselligkeits - Lied, Scherz
M: 2/4
L: 1/16
K: C
C2 | C2E2G2c2 | G4E3
E | G2F2F2F2 | A3GG2
C2 | C2E2G2c2 | G3EE2
G2 | G2F2F2G2 | E4z4

@@@ Tune index: 9753
